!!!!SEGMENT: pl-wn--sd-xvi-qu-273--005_gomolka-mikolaj--przypusc-panie-w-uszy-swoje.krn
!!!cenid: 15xx:210
!!!COM: Gomółka, Mikołaj
!!!COM-rismid: pe30013343
!!!CDT: ~1535->1591/04/30
!!!CNT: Polish
!!!GTL: Melodiae na psalterz polski
!!!OTL: V. Przypuść, Panie, w uszy swoje
!!!PDT: 1580
!!!AGN: Sacred
!!!SMS-siglum: PL-Wn
!!!SMS-shelfmark: SD XVI.Qu.273
!!!SMS-shelfwork: 005 G
!!!NIFC-rismid:
!!!ONB-nifc: Melodiae na psalterz polski
**kern	**text	**kern	**text	**kern	**text	**kern	**text
*part4	*part4	*part3	*part3	*part2	*part2	*part1	*part1
*staff4	*staff4	*staff3	*staff3	*staff2	*staff2	*staff1	*staff1
*clefC4	*	*clefC3	*	*clefC1	*	*clefG2	*
*k[b-]	*	*k[b-]	*	*k[b-]	*	*k[b-]	*
*g:	*	*g:	*	*g:	*	*g:	*
*M4/2	*	*M4/2	*	*M4/2	*	*M4/2	*
*met(C|)	*	*met(C|)	*	*met(C|)	*	*met(C|)	*
*xywh-6r:604,5294,5054,1421	*	*xywh-6r:628,4089,5030,1237	*	*xywh-6r:612,2875,5022,1237	*	*xywh-6r:604,1597,5038,1253	*
=-	=-	=-	=-	=-	=-	=-	=-
1G	Prӡy-	1g	Prӡy-	1b-X	Prӡy-	1dd	Prӡy-
1G	-puść	1g	-puść	1b-X	-puść	1dd	-puść,
=3-	=3-	=3-	=3-	=3-	=3-	=3-	=3-
1c	pá-	1g	pá-	2.cc	pá-	1ee-X	pá-
.	.	.	.	4b-	.	.	.
2d	-nie	2f#X	-nie	2a	-nie	2dd	-nie,
1G	w_u-	1d	w_u-	1g	w_u-	1b-X	w_u-
=4-	=4-	=4-	=4-	=4-	=4-	=4-	=4-
.	.	.	.	.	.	.	.
2G	-ʃᴣy	2d	-ʃᴣy	2g/	-ʃᴣy	2b/-	-éʃᴣy
1C	ʃwo-	4e	ʃwo-	4g/	swo-	1cc	swo-
.	.	2f	.	2a	.	.	.
.	.	4e	.	4g/	.	.	.
=5-	=5-	=5-	=5-	=5-	=5-	=5-	=5-
2F	-ie	2f	-ie	2a	-ie	2cc	-ie
1f	Sło-	1a	Sło-	1cc	Sło-	1ff	Sło-
2c	-wá	2g	-wá	2cc	-wá	>2ee	-wá
=6-	=6-	=6-	=6-	=6-	=6-	=6-	=6-
2d	i	2f	i	2a	i	2dd	i
2.G	wo-	2.d	wo-	2.g/	wo-	2.b-X/	wo-
4G	-łá-	4d	-łá-	4g/	-łá-	4b-/	-łá-
2G	-nié	2d	-nié	2g/	-nié	2b-/	-nié
=7-	=7-	=7-	=7-	=7-	=7-	=7-	=7-
1C	mo-	1e	mo-	1g	mo-	2.cc	mo-
.	.	.	.	.	.	4b-/	.
2F	-ie:	2f	-ie:	2c	-ie:	2a	-ie:
2D	Wyʃ-	2a	Wyʃ-	2d	Wyʃ-	2ff	Wyʃ-
=8-	=8-	=8-	=8-	=8-	=8-	=8-	=8-
2C#X	-łu-	2a	-łu-	2e	-łu-	2ee	-łu-
2D	-chay	2a	-chay	2f	-chaj	2dd	-chaj
!!LO:PB:g=original
*xywh-6v:1190,5424,5065,1284	*	*xywh-6v:1182,4115,5065,1308	*	*xywh-6v:1174,2847,5033,1260	*	*xywh-6v:1158,1231,5049,1583	*
2A	móy	2a	móy	2e	móy	2cc	móy
2D	głos	2a	głos	2d	głos	2dd	głos
=9-	=9-	=9-	=9-	=9-	=9-	=9-	=9-
1G	płácӡ-	1.g	płácӡ-	1d	płácӡ-	1b-	płácӡ-
1G	-li-	.	.	1d	-li-	1b-	-li-
.	.	4f#X	-li-	.	.	.	.
.	.	4e	.	.	.	.	.
=10-	=10-	=10-	=10-	=10-	=10-	=10-	=10-
2D	-wy	2f#X	-wy	2d	-wy	2a	-wy,
2G	Kó-	2g	Kó-	2d	Kó-	2b-X/	Kó-
2C	-lu	2e	-lu	2g/	-lu	2cc	-lu
1F	y	1f#	y	1a	y	1cc	y
=11-	=11-	=11-	=11-	=11-	=11-	=11-	=11-
.	.	.	.	.	.	.	.
2D	Bo-	2f	Bo-	2a	Bo-	2dd	Bo-
!	!"z z ."	!	!"z z ."	!	!"z z ."	!	!LO:"z z ."
1A	-ӡe	1e	-ӡe	1a	-ӡe	1cc#X	-ӡe
=12-	=12-	=12-	=12-	=12-	=12-	=12-	=12-
1F#X	praw-	1d	praw-	1a	praw-	1.dd	praw-
!	!"z z '"	!	!"z z '"	!	!"z z '"	!	!"z z '"
1G	-dӡi-	1d	-dӡi-	2.g	-dӡi-	.	.
.	.	.	.	.	.	2b-	-dӡi-
.	.	.	.	4f	.	.	.
=13-	=13-	=13-	=13-	=13-	=13-	=13-	=13-
!!LO:N:vis=00
0A;	-wy.	0c#X;	-wy.	0e;/	-wy.	0a;	-wy/
=-	=-	=-	=-	=-	=-	=-	=-
*-	*-	*-	*-	*-	*-	*-	*-
!!!RDF**kern: l = terminal long
!!!system-decoration: s1,s2,s3,s4
!!!RDF**kern: > = above
!!!ENC:Anna Matuszewska
!!!END:2020-02-04
!!!URL-scan: https://polona.pl/item/melodiae-na-psalterz-polski,Nzk3MTM4ODQ/26 Scan on Polona
!!!IIIF: https://polona.pl/iiif/item/Nzk3MTM4ODQ/manifest.json
